!!!OTL: Der Nachtjaeger Ess blys ein Jeger wol ynn seyn Horn,
!!!ARE: Europa, Mitteleuropa, Deutschland
!!!YOR: 6, S. 161
!!    1777 gedruckt in Berlin und Stettin
!!!SCT: Q0133
!!!YEM: Copyright 1995, estate of Helmut Schaffrath.
**kern
*ICvox
*Ivox
!! Mixed meters:  6/8; 2/4
*M6/8
*k[]
*C:
{8G
=1
4c
8c
8.c
16B
8A
=2
4G
8G
4G}
{8g
=3
4.e
4.d
=4
4.c
4r}
{8G
=5
4c
8c
8.c
16B
8A
=6
4G
8G
4G}
{8g
=7
4.e
4.d
=8
4.c
4.r}
=9
*M2/4
{8g
8e
8e
8g
=10
8f
8d
8d}
{8G
=11
16c
16d
16e
16f
8g
8c
=12
4e
4d
=13
4.c}
==
!!!AGN: Ballade, Jagd, Flucht, Vergewaltigung, Tod
!! Schlusspause korrigiert. Grundton in der zweigestrichenen Oktave.
!!    Vorletzte Zeile = Refrain auf  sinnfreie Silben.
!!!ONB: ESAC (Essen Associative Code) Database: BALLADE
!!!AMT: irregular
!!!AIN: vox
!!!EED: Helmut Schaffrath
!!!EEV: 1.0
*-
